svgs/sharp-regular/sidebar.svg

<svg xmlns="http://www.w3.org/2000/svg" viewBox="0 0 512 512"><!--! Font Awesome Pro 6.6.0 by @fontawesome - https://fontawesome.com License - https://fontawesome.com/license (Commercial License) Copyright 2024 Fonticons, Inc. --><path d="M224 80l0 352 240 0 0-352L224 80zM0 32l48 0 416 0 48 0 0 48 0 352 0 48-48 0L48 480 0 480l0-48L0 80 0 32zM64 96l0 48 96 0 0-48L64 96zm96 96l-96 0 0 48 96 0 0-48zM64 288l0 48 96 0 0-48-96 0z"/></svg>

<svg xmlns="http://www.w3.org/2000/svg" viewBox="0 0 512 512"><!--! Font Awesome Pro 6.4.0 by @fontawesome - https://fontawesome.com License - https://fontawesome.com/license (Commercial License) Copyright 2023 Fonticons, Inc. --><path d="M224 80V432H464V80H224zM0 32H48 464h48V80 432v48H464 48 0V432 80 32zM64 96v48h96V96H64zm96 96H64v48h96V192zM64 288v48h96V288H64z"/></svg>
